static/pancake/img/service-bed.svg

<svg xmlns="http://www.w3.org/2000/svg" width="60" height="60" viewBox="0 0 60 60"><g data-name="Слой 1"><path fill="none" d="M0 0h60v60H0z"/><path d="M55.49 40.35v6.45a1.61 1.61 0 0 1-1.61 1.61h-4.37v-1.82A1.61 1.61 0 0 0 47.89 45H12.11a1.61 1.61 0 0 0-1.61 1.61v1.82H6.14a1.61 1.61 0 0 1-1.62-1.63v-6.45zM51.39 28.82v-6.13c0-6.13-9.59-11.11-21.41-11.11s-21.41 5-21.41 11.11v6.12" fill="#dbd7cd" stroke="#692f17" stroke-linecap="round" stroke-miterlimit="10"/><path d="M28.05 28.77a1.28 1.28 0 0 0 1.28-1.28v-5.36a1.28 1.28 0 0 0-1.28-1.28h-3.29a13.64 13.64 0 0 0-7.39 0h-3.29a1.28 1.28 0 0 0-1.28 1.28v5.36a1.28 1.28 0 0 0 1.28 1.28M46.58 28.77a1.28 1.28 0 0 0 1.28-1.28v-5.36a1.28 1.28 0 0 0-1.28-1.28h-3.29a13.64 13.64 0 0 0-7.39 0h-3.29a1.28 1.28 0 0 0-1.28 1.28v5.36a1.28 1.28 0 0 0 1.28 1.28" fill="#fd8204" stroke="#692f17" stroke-linecap="round" stroke-miterlimit="10" stroke-width=".8"/><path d="M55.52 40.38v-10a1.61 1.61 0 0 0-1.62-1.6H6.11a1.61 1.61 0 0 0-1.62 1.6v10" fill="#f6f1ec" stroke="#692f17" stroke-linecap="round" stroke-miterlimit="10"/><path d="M55.52 33A245.56 245.56 0 0 1 30 34.16 245.77 245.77 0 0 1 4.52 33" fill="none" stroke="#692f17" stroke-linecap="round" stroke-miterlimit="10" stroke-width=".8"/></g></svg>

<svg xmlns="http://www.w3.org/2000/svg" width="60" height="60" viewBox="0 0 60 60"><title>замена-постельного-белья_1</title><g id="Слой_2" data-name="Слой 2"><g id="Слой_1-2" data-name="Слой 1"><rect width="60" height="60" fill="none"/><path d="M55.49,40.35V46.8a1.61,1.61,0,0,1-1.61,1.61H49.51V46.59A1.61,1.61,0,0,0,47.89,45H12.11a1.61,1.61,0,0,0-1.61,1.61v1.82H6.14A1.61,1.61,0,0,1,4.52,46.8V40.35Z" fill="#dbd7cd" stroke="#692f17" stroke-linecap="round" stroke-miterlimit="10"/><path d="M51.39,28.82V22.69c0-6.13-9.59-11.11-21.41-11.11s-21.41,5-21.41,11.11v6.12" fill="#dbd7cd" stroke="#692f17" stroke-linecap="round" stroke-miterlimit="10"/><path d="M28.05,28.77a1.28,1.28,0,0,0,1.28-1.28V22.13a1.28,1.28,0,0,0-1.28-1.28H24.76a13.64,13.64,0,0,0-7.39,0H14.08a1.28,1.28,0,0,0-1.28,1.28v5.36a1.28,1.28,0,0,0,1.28,1.28" fill="#fd8204" stroke="#692f17" stroke-linecap="round" stroke-miterlimit="10" stroke-width="0.8"/><path d="M46.58,28.77a1.28,1.28,0,0,0,1.28-1.28V22.13a1.28,1.28,0,0,0-1.28-1.28H43.29a13.64,13.64,0,0,0-7.39,0H32.61a1.28,1.28,0,0,0-1.28,1.28v5.36a1.28,1.28,0,0,0,1.28,1.28" fill="#fd8204" stroke="#692f17" stroke-linecap="round" stroke-miterlimit="10" stroke-width="0.8"/><path d="M55.52,40.38v-10a1.61,1.61,0,0,0-1.62-1.6H6.11a1.61,1.61,0,0,0-1.62,1.6v10" fill="#f6f1ec" stroke="#692f17" stroke-linecap="round" stroke-miterlimit="10"/><path d="M55.52,33A245.56,245.56,0,0,1,30,34.16,245.77,245.77,0,0,1,4.52,33" fill="none" stroke="#692f17" stroke-linecap="round" stroke-miterlimit="10" stroke-width="0.8"/></g></g></svg>
